static/img/in-field/radios.svg

<svg width="1088" height="158" viewBox="0 0 1088 158" fill="none" xmlns="http://www.w3.org/2000/svg"><rect width="1087" height="158" transform="translate(0.5)" fill="#F1F1F6"/><path fill-rule="evenodd" clip-rule="evenodd" d="M498.25 45.5C498.25 37.91 504.41 31.75 512 31.75C519.59 31.75 525.75 37.91 525.75 45.5C525.75 53.09 519.59 59.25 512 59.25C504.41 59.25 498.25 53.09 498.25 45.5ZM501 45.5C501 51.5775 505.922 56.5 512 56.5C518.077 56.5 523 51.5775 523 45.5C523 39.4225 518.077 34.5 512 34.5C505.922 34.5 501 39.4225 501 45.5Z" fill="#90939F"/><path d="M541.648 55V39.2949H543.475V53.3672H550.446V55H541.648ZM557.528 43.0332C558.932 43.0332 559.974 43.3483 560.654 43.9785C561.335 44.6087 561.675 45.6149 561.675 46.9971V55H560.375L560.031 53.2598H559.945C559.616 53.6895 559.272 54.0511 558.914 54.3447C558.556 54.6312 558.141 54.8496 557.668 55C557.202 55.1432 556.63 55.2148 555.949 55.2148C555.233 55.2148 554.596 55.0895 554.037 54.8389C553.486 54.5882 553.049 54.2087 552.727 53.7002C552.411 53.1917 552.254 52.5472 552.254 51.7666C552.254 50.5921 552.719 49.6898 553.65 49.0596C554.581 48.4294 555.999 48.0856 557.904 48.0283L559.935 47.9424V47.2227C559.935 46.2057 559.716 45.4932 559.279 45.085C558.842 44.6768 558.227 44.4727 557.432 44.4727C556.816 44.4727 556.229 44.5622 555.67 44.7412C555.111 44.9202 554.581 45.1315 554.08 45.375L553.532 44.0215C554.062 43.7493 554.671 43.5166 555.358 43.3232C556.046 43.1299 556.769 43.0332 557.528 43.0332ZM559.913 49.1992L558.119 49.2744C556.651 49.3317 555.616 49.5716 555.015 49.9941C554.413 50.4167 554.112 51.0146 554.112 51.7881C554.112 52.4613 554.316 52.959 554.725 53.2812C555.133 53.6035 555.674 53.7646 556.347 53.7646C557.392 53.7646 558.248 53.4746 558.914 52.8945C559.58 52.3145 559.913 51.4443 559.913 50.2842V49.1992ZM567.382 38.2852V42.4639C567.382 42.9437 567.368 43.4092 567.339 43.8604C567.317 44.3115 567.299 44.6624 567.285 44.9131H567.382C567.704 44.3831 568.17 43.9355 568.778 43.5703C569.387 43.2051 570.164 43.0225 571.109 43.0225C572.585 43.0225 573.759 43.5345 574.633 44.5586C575.514 45.5755 575.954 47.0902 575.954 49.1025C575.954 50.4274 575.754 51.5446 575.353 52.4541C574.951 53.3636 574.386 54.0511 573.655 54.5166C572.925 54.9821 572.062 55.2148 571.066 55.2148C570.135 55.2148 569.369 55.043 568.768 54.6992C568.173 54.3483 567.715 53.9222 567.393 53.4209H567.253L566.888 55H565.599V38.2852H567.382ZM570.819 44.5156C569.967 44.5156 569.29 44.6839 568.789 45.0205C568.288 45.3499 567.926 45.8512 567.704 46.5244C567.489 47.1904 567.382 48.0355 567.382 49.0596V49.1562C567.382 50.6387 567.629 51.7738 568.123 52.5615C568.617 53.3421 569.516 53.7324 570.819 53.7324C571.915 53.7324 572.735 53.3314 573.279 52.5293C573.831 51.7272 574.106 50.5814 574.106 49.0918C574.106 47.5736 573.834 46.4313 573.29 45.665C572.753 44.8988 571.929 44.5156 570.819 44.5156ZM583.853 43.0117C584.855 43.0117 585.715 43.2337 586.431 43.6777C587.147 44.1217 587.695 44.7448 588.074 45.5469C588.454 46.3418 588.644 47.2728 588.644 48.3398V49.4463H580.512C580.533 50.8285 580.877 51.8812 581.543 52.6045C582.209 53.3278 583.147 53.6895 584.357 53.6895C585.102 53.6895 585.761 53.6214 586.334 53.4854C586.907 53.3493 587.501 53.1488 588.117 52.8838V54.4521C587.523 54.7171 586.932 54.9105 586.345 55.0322C585.765 55.154 585.077 55.2148 584.282 55.2148C583.151 55.2148 582.162 54.9857 581.317 54.5273C580.479 54.0618 579.828 53.3815 579.362 52.4863C578.897 51.5911 578.664 50.4954 578.664 49.1992C578.664 47.9316 578.875 46.8359 579.298 45.9121C579.728 44.9811 580.329 44.265 581.103 43.7637C581.883 43.2624 582.8 43.0117 583.853 43.0117ZM583.831 44.4727C582.879 44.4727 582.119 44.7842 581.554 45.4072C580.988 46.0303 580.651 46.9004 580.544 48.0176H586.774C586.767 47.3158 586.656 46.6999 586.441 46.1699C586.234 45.6328 585.915 45.2174 585.485 44.9238C585.056 44.623 584.504 44.4727 583.831 44.4727ZM593.717 55H591.923V38.2852H593.717V55Z" fill="#353A40"/><g clip-path="url(#clip0_5579_88328)"><path fill-rule="evenodd" clip-rule="evenodd" d="M511.5 98.6667C504.14 98.6667 498.167 104.64 498.167 112C498.167 119.36 504.14 125.333 511.5 125.333C518.86 125.333 524.833 119.36 524.833 112C524.833 104.64 518.86 98.6667 511.5 98.6667ZM511.5 105.333C507.82 105.333 504.833 108.32 504.833 112C504.833 115.68 507.82 118.667 511.5 118.667C515.18 118.667 518.167 115.68 518.167 112C518.167 108.32 515.18 105.333 511.5 105.333ZM500.833 112C500.833 117.893 505.607 122.667 511.5 122.667C517.393 122.667 522.167 117.893 522.167 112C522.167 106.107 517.393 101.333 511.5 101.333C505.607 101.333 500.833 106.107 500.833 112Z" fill="#217CBB"/><path d="M537.648 121V105.295H539.475V119.367H546.446V121H537.648ZM553.528 109.033C554.932 109.033 555.974 109.348 556.654 109.979C557.335 110.609 557.675 111.615 557.675 112.997V121H556.375L556.031 119.26H555.945C555.616 119.689 555.272 120.051 554.914 120.345C554.556 120.631 554.141 120.85 553.668 121C553.202 121.143 552.63 121.215 551.949 121.215C551.233 121.215 550.596 121.09 550.037 120.839C549.486 120.588 549.049 120.209 548.727 119.7C548.411 119.192 548.254 118.547 548.254 117.767C548.254 116.592 548.719 115.69 549.65 115.06C550.581 114.429 551.999 114.086 553.904 114.028L555.935 113.942V113.223C555.935 112.206 555.716 111.493 555.279 111.085C554.842 110.677 554.227 110.473 553.432 110.473C552.816 110.473 552.229 110.562 551.67 110.741C551.111 110.92 550.581 111.132 550.08 111.375L549.532 110.021C550.062 109.749 550.671 109.517 551.358 109.323C552.046 109.13 552.769 109.033 553.528 109.033ZM555.913 115.199L554.119 115.274C552.651 115.332 551.616 115.572 551.015 115.994C550.413 116.417 550.112 117.015 550.112 117.788C550.112 118.461 550.316 118.959 550.725 119.281C551.133 119.604 551.674 119.765 552.347 119.765C553.392 119.765 554.248 119.475 554.914 118.895C555.58 118.314 555.913 117.444 555.913 116.284V115.199ZM563.382 104.285V108.464C563.382 108.944 563.368 109.409 563.339 109.86C563.317 110.312 563.299 110.662 563.285 110.913H563.382C563.704 110.383 564.17 109.936 564.778 109.57C565.387 109.205 566.164 109.022 567.109 109.022C568.585 109.022 569.759 109.535 570.633 110.559C571.514 111.576 571.954 113.09 571.954 115.103C571.954 116.427 571.754 117.545 571.353 118.454C570.951 119.364 570.386 120.051 569.655 120.517C568.925 120.982 568.062 121.215 567.066 121.215C566.135 121.215 565.369 121.043 564.768 120.699C564.173 120.348 563.715 119.922 563.393 119.421H563.253L562.888 121H561.599V104.285H563.382ZM566.819 110.516C565.967 110.516 565.29 110.684 564.789 111.021C564.288 111.35 563.926 111.851 563.704 112.524C563.489 113.19 563.382 114.035 563.382 115.06V115.156C563.382 116.639 563.629 117.774 564.123 118.562C564.617 119.342 565.516 119.732 566.819 119.732C567.915 119.732 568.735 119.331 569.279 118.529C569.831 117.727 570.106 116.581 570.106 115.092C570.106 113.574 569.834 112.431 569.29 111.665C568.753 110.899 567.929 110.516 566.819 110.516ZM579.853 109.012C580.855 109.012 581.715 109.234 582.431 109.678C583.147 110.122 583.695 110.745 584.074 111.547C584.454 112.342 584.644 113.273 584.644 114.34V115.446H576.512C576.533 116.828 576.877 117.881 577.543 118.604C578.209 119.328 579.147 119.689 580.357 119.689C581.102 119.689 581.761 119.621 582.334 119.485C582.907 119.349 583.501 119.149 584.117 118.884V120.452C583.523 120.717 582.932 120.91 582.345 121.032C581.765 121.154 581.077 121.215 580.282 121.215C579.151 121.215 578.162 120.986 577.317 120.527C576.479 120.062 575.828 119.382 575.362 118.486C574.897 117.591 574.664 116.495 574.664 115.199C574.664 113.932 574.875 112.836 575.298 111.912C575.728 110.981 576.329 110.265 577.103 109.764C577.883 109.262 578.8 109.012 579.853 109.012ZM579.831 110.473C578.879 110.473 578.119 110.784 577.554 111.407C576.988 112.03 576.651 112.9 576.544 114.018H582.774C582.767 113.316 582.656 112.7 582.441 112.17C582.234 111.633 581.915 111.217 581.485 110.924C581.056 110.623 580.504 110.473 579.831 110.473ZM589.717 121H587.923V104.285H589.717V121Z" fill="#353A40"/></g><defs><clipPath id="clip0_5579_88328"><rect width="97" height="32" fill="#fff" transform="translate(495.5 96)"/></clipPath></defs></svg>

<svg width="1088" height="158" fill="none" xmlns="http://www.w3.org/2000/svg"><path fill="#F1F1F6" d="M.5 0h1087v158H.5z"/><path fill-rule="evenodd" clip-rule="evenodd" d="M498.25 45.5c0-7.59 6.16-13.75 13.75-13.75s13.75 6.16 13.75 13.75-6.16 13.75-13.75 13.75-13.75-6.16-13.75-13.75zm2.75 0c0 6.078 4.922 11 11 11 6.077 0 11-4.922 11-11s-4.923-11-11-11c-6.078 0-11 4.922-11 11z" fill="#90939F"/><path d="M541.648 55V39.295h1.827v14.072h6.971V55h-8.798zm15.88-11.967c1.404 0 2.446.315 3.126.945.681.63 1.021 1.637 1.021 3.02V55h-1.3l-.344-1.74h-.086c-.329.43-.673.791-1.031 1.085a3.828 3.828 0 01-1.246.655c-.466.143-1.038.215-1.719.215-.716 0-1.353-.126-1.912-.376a2.977 2.977 0 01-1.31-1.139c-.316-.508-.473-1.153-.473-1.933 0-1.175.465-2.077 1.396-2.707.931-.63 2.349-.974 4.254-1.032l2.031-.086v-.72c0-1.016-.219-1.729-.656-2.137-.437-.408-1.052-.612-1.847-.612-.616 0-1.203.09-1.762.268-.559.18-1.089.39-1.59.634l-.548-1.353a9.828 9.828 0 011.826-.699 7.984 7.984 0 012.17-.29zm2.385 6.166l-1.794.075c-1.468.058-2.503.298-3.104.72-.602.423-.903 1.02-.903 1.794 0 .673.204 1.171.613 1.493.408.322.949.484 1.622.484 1.045 0 1.901-.29 2.567-.87.666-.58.999-1.45.999-2.61v-1.086zm7.469-10.914v4.179c0 .48-.014.945-.043 1.396-.022.452-.04.802-.054 1.053h.097c.322-.53.788-.977 1.396-1.343.609-.365 1.386-.547 2.331-.547 1.476 0 2.65.511 3.524 1.536.881 1.017 1.321 2.531 1.321 4.544 0 1.324-.2 2.442-.601 3.351-.402.91-.967 1.597-1.698 2.063-.73.465-1.593.698-2.589.698-.931 0-1.697-.172-2.298-.516-.595-.35-1.053-.777-1.375-1.278h-.14L566.888 55h-1.289V38.285h1.783zm3.437 6.23c-.852 0-1.529.169-2.03.505-.501.33-.863.831-1.085 1.504-.215.666-.322 1.511-.322 2.536v.096c0 1.483.247 2.618.741 3.406.494.78 1.393 1.17 2.696 1.17 1.096 0 1.916-.4 2.46-1.203.552-.802.827-1.948.827-3.437 0-1.518-.272-2.66-.816-3.427-.537-.766-1.361-1.15-2.471-1.15zm13.034-1.503c1.002 0 1.862.222 2.578.666.716.444 1.264 1.067 1.643 1.869.38.795.57 1.726.57 2.793v1.106h-8.132c.021 1.383.365 2.435 1.031 3.159.666.723 1.604 1.085 2.814 1.085.745 0 1.404-.069 1.977-.205a10.899 10.899 0 001.783-.601v1.568a8.669 8.669 0 01-1.772.58c-.58.122-1.268.183-2.063.183-1.131 0-2.12-.23-2.965-.688-.838-.465-1.489-1.145-1.955-2.04-.465-.896-.698-1.992-.698-3.288 0-1.267.211-2.363.634-3.287.43-.93 1.031-1.647 1.805-2.148.78-.502 1.697-.752 2.75-.752zm-.022 1.46c-.952 0-1.712.312-2.277.935-.566.623-.903 1.493-1.01 2.61h6.23c-.007-.701-.118-1.317-.333-1.847-.207-.537-.526-.953-.956-1.246-.429-.301-.981-.451-1.654-.451zM593.717 55h-1.794V38.285h1.794V55z" fill="#353A40"/><g clip-path="url(#prefix__clip0_5579_88328)"><path fill-rule="evenodd" clip-rule="evenodd" d="M511.5 98.667c-7.36 0-13.333 5.973-13.333 13.333s5.973 13.333 13.333 13.333 13.333-5.973 13.333-13.333-5.973-13.333-13.333-13.333zm0 6.666a6.67 6.67 0 00-6.667 6.667 6.67 6.67 0 006.667 6.667 6.67 6.67 0 006.667-6.667 6.67 6.67 0 00-6.667-6.667zM500.833 112c0 5.893 4.774 10.667 10.667 10.667s10.667-4.774 10.667-10.667-4.774-10.667-10.667-10.667-10.667 4.774-10.667 10.667z" fill="#217CBB"/><path d="M537.648 121v-15.705h1.827v14.072h6.971V121h-8.798zm15.88-11.967c1.404 0 2.446.315 3.126.946.681.63 1.021 1.636 1.021 3.018V121h-1.3l-.344-1.74h-.086a6.56 6.56 0 01-1.031 1.085 3.83 3.83 0 01-1.246.655c-.466.143-1.038.215-1.719.215-.716 0-1.353-.125-1.912-.376a2.977 2.977 0 01-1.31-1.139c-.316-.508-.473-1.153-.473-1.933 0-1.175.465-2.077 1.396-2.707.931-.631 2.349-.974 4.254-1.032l2.031-.086v-.719c0-1.017-.219-1.73-.656-2.138-.437-.408-1.052-.612-1.847-.612a5.74 5.74 0 00-1.762.268c-.559.179-1.089.391-1.59.634l-.548-1.354a9.885 9.885 0 011.826-.698 7.996 7.996 0 012.17-.29zm2.385 6.166l-1.794.075c-1.468.058-2.503.298-3.104.72-.602.423-.903 1.021-.903 1.794 0 .673.204 1.171.613 1.493.408.323.949.484 1.622.484 1.045 0 1.901-.29 2.567-.87.666-.581.999-1.451.999-2.611v-1.085zm7.469-10.914v4.179c0 .48-.014.945-.043 1.396-.022.452-.04.802-.054 1.053h.097c.322-.53.788-.977 1.396-1.343.609-.365 1.386-.548 2.331-.548 1.476 0 2.65.513 3.524 1.537.881 1.017 1.321 2.531 1.321 4.544 0 1.324-.2 2.442-.601 3.351-.402.91-.967 1.597-1.698 2.063-.73.465-1.593.698-2.589.698-.931 0-1.697-.172-2.298-.516-.595-.351-1.053-.777-1.375-1.278h-.14l-.365 1.579h-1.289v-16.715h1.783zm3.437 6.231c-.852 0-1.529.168-2.03.505-.501.329-.863.83-1.085 1.503-.215.666-.322 1.511-.322 2.536v.096c0 1.483.247 2.618.741 3.406.494.78 1.393 1.17 2.696 1.17 1.096 0 1.916-.401 2.46-1.203.552-.802.827-1.948.827-3.437 0-1.518-.272-2.661-.816-3.427-.537-.766-1.361-1.149-2.471-1.149zm13.034-1.504c1.002 0 1.862.222 2.578.666.716.444 1.264 1.067 1.643 1.869.38.795.57 1.726.57 2.793v1.106h-8.132c.021 1.382.365 2.435 1.031 3.158.666.724 1.604 1.085 2.814 1.085.745 0 1.404-.068 1.977-.204a10.884 10.884 0 001.783-.601v1.568a8.687 8.687 0 01-1.772.58c-.58.122-1.268.183-2.063.183-1.131 0-2.12-.229-2.965-.688-.838-.465-1.489-1.145-1.955-2.041-.465-.895-.698-1.991-.698-3.287 0-1.267.211-2.363.634-3.287.43-.931 1.031-1.647 1.805-2.148.78-.502 1.697-.752 2.75-.752zm-.022 1.461c-.952 0-1.712.311-2.277.934-.566.623-.903 1.493-1.01 2.611h6.23c-.007-.702-.118-1.318-.333-1.848-.207-.537-.526-.953-.956-1.246-.429-.301-.981-.451-1.654-.451zM589.717 121h-1.794v-16.715h1.794V121z" fill="#353A40"/></g><defs><clipPath id="prefix__clip0_5579_88328"><path fill="#fff" transform="translate(495.5 96)" d="M0 0h97v32H0z"/></clipPath></defs></svg>
